X: 89
T: Halling efter Per L\"of
O: V\"armland
R: halling
S: http://www.folksweden.com/files/089-Halling_efter_Per_Lof.pdf (Tim Rued)
Z: 2021 John Chambers <jc:trillian.mit.edu>
M: C|
L: 1/8
K: Dm
|: Aag=b a4 | ageg f4 | f2ag e2ef |1,3 dfed ^c2A2- :|2,4 dfe^c d4 :|
|: [A2D2]d^c d2e2- | e2fe f2e^c | A2d^c d2eg |1,3 fed^c d2AF :|2,4 fed^c d4 :|
